svg/color/eden.svg

<svg xmlns="http://www.w3.org/2000/svg" fill="none" viewBox="0 0 27 36"><g clip-path="url(#eden_svg-a)"><path fill="url(#eden_svg-b)" d="M26.484 13.242 13.242 0 2.207 11.035 0 13.242v11.051L5.51 29.8l2.207 2.21 2.207-2.21 1.758-1.758v7.913H14.8v-7.911l1.75 1.75L18.76 32l2.207-2.207 5.517-5.517zM14.8 20.509V5.975l7.267 7.267zM11.681 5.975v14.534l-7.267-7.267zM3.121 23v-6.637l7.914 7.914L7.716 27.6zm12.328 1.277 7.914-7.914v6.621l-4.6 4.6z"/></g><defs><linearGradient id="eden_svg-b" x1="25.425" x2="-1.09" y1="11.398" y2="19.705" gradientUnits="userSpaceOnUse"><stop stop-color="#C7F222"/><stop offset=".75" stop-color="#00D37F"/></linearGradient><clipPath id="eden_svg-a"><path fill="#fff" d="M0 0h26.48v35.958H0z"/></clipPath></defs></svg>

<svg viewBox="0 0 27 36" fill="none" xmlns="http://www.w3.org/2000/svg">
<g clip-path="url(#clip0_1488_170189)">
<path d="M26.484 13.242L13.242 0L2.207 11.035L0 13.242V24.293L5.51 29.8L7.717 32.01L9.924 29.8L11.682 28.042V35.955H14.8V28.044L16.55 29.794L18.76 32L20.967 29.793L26.484 24.276V13.242ZM14.8 20.509V5.975L22.067 13.242L14.8 20.509ZM11.681 5.975V20.509L4.414 13.242L11.681 5.975ZM3.121 23V16.363L11.035 24.277L7.716 27.6L3.121 23ZM15.449 24.277L23.363 16.363V22.984L18.763 27.584L15.449 24.277Z" fill="url(#paint0_linear_1488_170189)"/>
</g>
<defs>
<linearGradient id="paint0_linear_1488_170189" x1="25.4246" y1="11.3977" x2="-1.09016" y2="19.705" gradientUnits="userSpaceOnUse">
<stop stop-color="#C7F222"/>
<stop offset="0.75" stop-color="#00D37F"/>
</linearGradient>
<clipPath id="clip0_1488_170189">
<rect width="26.48" height="35.958" fill="white"/>
</clipPath>
</defs>
</svg>
